X:320
T:Highlands of Banffshire, The
R:Strathspey
B:The Athole Collection
M:C
L:1/8
K:F
d|c<F c>B A>F F<f|c<F c>B A2 A>f|c<F c>B A<F c>A|
B>G _E/F/G/_A/ B2B:|
b|a>fc>f A<fc<b|a<f c>B A2 A>b|a>f c<f A<fc<A|B>G _E/F/G/_A/ B2 B>b|
a>f c<f A<fc<b|a<f c>B A>B cf/g/|(3afa (3geg (3fed (3cBA|B>G _E/F/G/_A/ B2B||

